icons/package.svg

<svg width="24" height="24" xmlns="http://www.w3.org/2000/svg" viewBox="0 0 24 24"><title>package</title><g stroke-width="1.5" fill="none" class="nc-icon-wrapper"><path d="M2.6954 7.18536L11.6954 11.1854L12.3046 9.81464L3.3046 5.81464L2.6954 7.18536ZM12.75 21.5V10.5H11.25V21.5H12.75ZM12.3046 11.1854L21.3046 7.18536L20.6954 5.81464L11.6954 9.81464L12.3046 11.1854Z" fill="#ffffff"></path><path d="M3 17.1101V6.88992C3 6.65281 3.13964 6.43794 3.35632 6.34164L11.7563 2.6083C11.9115 2.53935 12.0885 2.53935 12.2437 2.6083L20.6437 6.34164C20.8604 6.43794 21 6.65281 21 6.88992V17.1101C21 17.3472 20.8604 17.5621 20.6437 17.6584L12.2437 21.3917C12.0885 21.4606 11.9115 21.4606 11.7563 21.3917L3.35632 17.6584C3.13964 17.5621 3 17.3472 3 17.1101Z" stroke="#ffffff" stroke-linecap="round" stroke-linejoin="round"></path><path d="M7.5 4.5L16.1437 8.34164C16.3604 8.43794 16.5 8.65281 16.5 8.88992V12.5" stroke="#ffffff" stroke-linecap="round" stroke-linejoin="round"></path></g></svg>

<svg fill="none" stroke="currentColor" stroke-linecap="round" stroke-linejoin="round" stroke-width="1.5" viewBox="0 0 24 24"><path fill="currentColor" d="m2.695 7.185 9 4 .61-1.37-9-4zM12.75 21.5v-11h-1.5v11zm-.445-10.315 9-4-.61-1.37-9 4z"/><path d="M3 17.11V6.89a.6.6 0 0 1 .356-.548l8.4-3.734a.6.6 0 0 1 .488 0l8.4 3.734A.6.6 0 0 1 21 6.89v10.22a.6.6 0 0 1-.356.548l-8.4 3.734a.6.6 0 0 1-.488 0l-8.4-3.734A.6.6 0 0 1 3 17.11"/><path d="m7.5 4.5 8.644 3.842a.6.6 0 0 1 .356.548v3.61"/></svg>
